teeny/solid/button.svg

<svg width="15" height="15" viewBox="0 0 15 15" fill="none" xmlns="http://www.w3.org/2000/svg">
<path d="M4 6C2.34315 6 1 4.65685 1 3C1 1.34315 2.34315 0 4 0H11C12.6569 0 14 1.34315 14 3C14 4.65685 12.6569 6 11 6H9V3.5C9 2.11929 7.88071 1 6.5 1C5.11929 1 4 2.11929 4 3.5V6Z" fill="black"/>
<path d="M6.5 2C5.67157 2 5 2.67157 5 3.5V8.05001C3.85888 8.28164 3 9.29052 3 10.5C3 12.9853 5.01472 15 7.5 15H8C10.7614 15 13 12.7614 13 10V9.14706C13 7.96127 12.0387 7 10.8529 7H8V3.5C8 2.67157 7.32843 2 6.5 2Z" fill="black"/>
</svg>

<svg viewBox="0 0 15 15" xmlns="http://www.w3.org/2000/svg"><g><path d="M4 6C2.34 6 1 4.65 1 3c0-1.66 1.34-3 3-3h7c1.65 0 3 1.34 3 3 0 1.65-1.35 3-3 3H9V3.5C9 2.11 7.88 1 6.5 1 5.11 1 4 2.11 4 3.5V6Z"/><path d="M6.5 2C5.67 2 5 2.67 5 3.5v4.55c-1.15.23-2 1.24-2 2.44 0 2.48 2.01 4.5 4.5 4.5H8c2.76 0 5-2.24 5-5v-.86c0-1.19-.97-2.15-2.15-2.15H7.99v-3.5c0-.83-.68-1.5-1.5-1.5Z"/></g></svg>
